X:185
T:Quant voi
C:Manuscript de Montpellier (XIIIe siècle)
R:Motet
M:3/4
L:1/8
Q:1/4=120
% Last note suggests Phrygian mode tune
K:C 
V:1
A4A2 | D4 (3EFG | E3- E2z | G4G2 | 
E4FE | E3- E2z | C4DE | G4AB | 
c4 (3BAG | A3- A2z | D4DE | G4G2 | 
G4 (3AGF | E3- E2z | A2B2A2 | G2 (3FEFD2 | 
A3- A2z | D4D2 | E4FD | E3- E2z | 
G2G2G2 | G2F2ED | C4G2 | A3- A2z | 
D4 (3EDC | D4E2 | G4 (3AGF | E6 |]
V:2
E4E2 | G4G2 | A3- A2z | D4E2 | 
A4 (3BcB | A3- A2z | G4A2 | G4G2 | 
G4F2 | E3- E2z | G4FE | D4E2 | 
G4AB | A3- A2z | E4E2 | D4FE | 
D3- D2z | G4G2 | A4AG | A3- A2z | 
G4AB | c4A2 | G4 (3AGF | E3- E2z | 
G4FE | D4C2 | D4FG | A6 |]
V:3
A,3- A,2z | G,4^A,2 | =A,3- A,2z | G,3- G,2z | 
A,4F,2 | A,3- A,2z | C3- C2z | C4C2 | 
C3- C2z | A,3- A,2z | G,4A,2 | G,3- G,2z | 
G,6 | A,3- A,2z | A,3- A,2z | G,4^A,2 | 
=A,3- A,2z | G,3- G,2z | A,4F,2 | A,3- A,2z | 
C3- C2z | C4C2 | C3- C2z | A,3- A,2z | 
G,4A,2 | G,3- G,2z | G,6 | A,6 |]





